src/next/cmd/ar/lc_defaultnumbering.svg

<svg height="24" viewBox="0 0 6.3499999 6.3500002" width="24" xmlns="http://www.w3.org/2000/svg" xmlns:xlink="http://www.w3.org/1999/xlink"><linearGradient id="a"><stop offset="0" stop-color="#06f"/><stop offset="1" stop-color="#80b3ff"/></linearGradient><linearGradient id="b" gradientUnits="userSpaceOnUse" x1="4.890964" x2="4.890964" xlink:href="#a" y1="289.019339" y2="280.556658"/><linearGradient id="c" gradientUnits="userSpaceOnUse" x1="6.742572" x2="6.742572" xlink:href="#a" y1="281.545294" y2="270.070142"/><g transform="matrix(-1 0 0 1 6.35 .000001)"><g font-family="Bitstream Vera Sans" font-size="15.140461" transform="matrix(-.226875 0 0 .226875 2.426152 -59.172132)"><text fill="none" stroke="url(#b)" stroke-linecap="round" stroke-linejoin="round" stroke-width="2.52341" transform="scale(1.0210954 .97934043)" x="3.260905" y="289.01932"><tspan style="font-weight:bold;font-size:7.380369;font-family:Liberation Sans;fill:none;stroke-width:2.52341;stroke-linecap:round;stroke-linejoin:round;stroke:url(#b)" x="3.260905" y="289.01932">2</tspan></text><text fill="#bfd9ff" stroke-width="1.261705" x="3.4144" y="283.04831"><tspan fill="#bfd9ff" font-family="Liberation Sans" font-size="7.227894" font-weight="bold" stroke-width="1.261705" x="3.4144" y="283.04831">2</tspan></text></g><g font-family="Bitstream Vera Sans" font-size="19.985409" transform="matrix(-.171875 0 0 .171875 2.192633 -45.299136)"><text stroke="url(#c)" stroke-linecap="round" stroke-linejoin="round" stroke-width="3.330902" transform="scale(1.0236447 .97690145)" x="2.548692" y="282.5004"><tspan style="font-weight:bold;font-size:9.911941;font-family:Liberation Sans;stroke-width:3.330902;stroke-linecap:round;stroke-linejoin:round;stroke:url(#c)" x="2.548692" y="282.5004">1</tspan></text><text fill="#bfd9ff" stroke-width="1.665451" x="2.802282" y="275.97507"><tspan fill="#bfd9ff" font-family="Liberation Sans" font-size="9.493093" font-weight="bold" stroke-width="1.665451" x="2.802282" y="275.97507">1</tspan></text></g><g fill="#555"><path d="m2.3827483.79378203h3.4380848v.26455037h-3.4380849z"/><path d="m2.3767904 1.5875197h3.4440428v.2645639h-3.4440428z"/><path d="m2.3767902 2.3812608h2.6502929v.2645722h-2.6502929z"/><path d="m2.3827477 3.7041552h3.4380853v.2645948h-3.4380853z"/><path d="m2.3767899 4.4978911h3.4440431v.2646084h-3.4440431z"/><path d="m2.3767899 5.2916339h2.6502932v.2646167h-2.6502932z"/></g></g></svg>

<?xml version="1.0" encoding="UTF-8" standalone="no"?>
<svg
   xmlns:dc="http://purl.org/dc/elements/1.1/"
   xmlns:cc="http://creativecommons.org/ns#"
   xmlns:rdf="http://www.w3.org/1999/02/22-rdf-syntax-ns#"
   xmlns:svg="http://www.w3.org/2000/svg"
   xmlns="http://www.w3.org/2000/svg"
   xmlns:xlink="http://www.w3.org/1999/xlink"
   xmlns:sodipodi="http://sodipodi.sourceforge.net/DTD/sodipodi-0.dtd"
   xmlns:inkscape="http://www.inkscape.org/namespaces/inkscape"
   height="24"
   viewBox="0 0 6.3499999 6.3500002"
   width="24"
   version="1.1"
   id="svg43"
   sodipodi:docname="lc_defaultnumbering.svg"
   inkscape:version="0.92.4 (unknown)"
   inkscape:export-filename="/home/rizmut/Dokumen/Rizmut/Github/libreoffice-style-karasa-jaga/build/next/cmd/ar/lc_defaultnumbering.png"
   inkscape:export-xdpi="96"
   inkscape:export-ydpi="96">
  <metadata
     id="metadata49">
    <rdf:RDF>
      <cc:Work
         rdf:about="">
        <dc:format>image/svg+xml</dc:format>
        <dc:type
           rdf:resource="http://purl.org/dc/dcmitype/StillImage" />
        <dc:title></dc:title>
      </cc:Work>
    </rdf:RDF>
  </metadata>
  <defs
     id="defs47">
    <linearGradient
       inkscape:collect="always"
       id="linearGradient4372">
      <stop
         style="stop-color:#0066ff;stop-opacity:1;"
         offset="0"
         id="stop4374" />
      <stop
         style="stop-color:#80b3ff;stop-opacity:1"
         offset="1"
         id="stop4376" />
    </linearGradient>
    <linearGradient
       inkscape:collect="always"
       xlink:href="#linearGradient4372"
       id="linearGradient3117"
       gradientUnits="userSpaceOnUse"
       gradientTransform="matrix(0.40196209,0,0,0.4019621,-311.56205,158.07599)"
       x1="779"
       y1="300"
       x2="779"
       y2="295" />
    <linearGradient
       inkscape:collect="always"
       xlink:href="#linearGradient4372"
       id="linearGradient3132"
       gradientUnits="userSpaceOnUse"
       gradientTransform="matrix(0.35492992,0,0,0.35492992,-275.08571,195.85937)"
       x1="778"
       y1="295"
       x2="778"
       y2="290" />
    <linearGradient
       inkscape:collect="always"
       xlink:href="#linearGradient4372"
       id="linearGradient3147"
       gradientUnits="userSpaceOnUse"
       gradientTransform="matrix(0.36111803,0,0,0.36111802,-279.92549,194.69396)"
       x1="778.88196"
       y1="289.57986"
       x2="778.88196"
       y2="284.53162" />
  </defs>
  <sodipodi:namedview
     pagecolor="#ffffff"
     bordercolor="#666666"
     borderopacity="1"
     objecttolerance="10"
     gridtolerance="10"
     guidetolerance="10"
     inkscape:pageopacity="0"
     inkscape:pageshadow="2"
     inkscape:window-width="1366"
     inkscape:window-height="706"
     id="namedview45"
     showgrid="true"
     inkscape:zoom="13.906433"
     inkscape:cx="11.918492"
     inkscape:cy="14.25342"
     inkscape:window-x="0"
     inkscape:window-y="0"
     inkscape:window-maximized="1"
     inkscape:current-layer="svg43">
    <inkscape:grid
       type="xygrid"
       id="grid856" />
  </sodipodi:namedview>
  <linearGradient
     id="a">
    <stop
       offset="0"
       stop-color="#06f"
       id="stop2" />
    <stop
       offset="1"
       stop-color="#80b3ff"
       id="stop4" />
  </linearGradient>
  <linearGradient
     id="b"
     gradientUnits="userSpaceOnUse"
     x1="4.890964"
     x2="4.890964"
     xlink:href="#a"
     y1="289.019339"
     y2="280.556658" />
  <linearGradient
     id="c"
     gradientUnits="userSpaceOnUse"
     x1="6.742572"
     x2="6.742572"
     xlink:href="#a"
     y1="281.545294"
     y2="270.070142" />
  <g
     id="g860"
     transform="matrix(-1,0,0,1,6.3499998,9.4166667e-7)">
    <g
       style="font-size:15.14046097px;font-family:'Bitstream Vera Sans'"
       id="g17"
       transform="matrix(-0.226875,0,0,0.226875,2.426152,-59.172132)"
       font-size="15.140461">
      <text
         style="fill:none;stroke:url(#b);stroke-width:2.52341008;stroke-linecap:round;stroke-linejoin:round"
         id="text11"
         y="289.01932"
         x="3.260905"
         transform="scale(1.0210954,0.97934043)">
        <tspan
           id="tspan9"
           y="289.01932"
           x="3.260905"
           style="font-weight:bold;font-size:7.38036919px;font-family:'Liberation Sans';fill:none;stroke:url(#b);stroke-width:2.52341008;stroke-linecap:round;stroke-linejoin:round">2</tspan>
      </text>
      <text
         style="fill:#bfd9ff;stroke-width:1.26170504"
         id="text15"
         y="283.04831"
         x="3.4144001">
        <tspan
           style="font-weight:bold;font-size:7.22789383px;font-family:'Liberation Sans';fill:#bfd9ff;stroke-width:1.26170504"
           id="tspan13"
           y="283.04831"
           x="3.4144001"
           font-weight="bold"
           font-size="7.227894">2</tspan>
      </text>
    </g>
    <g
       style="font-size:19.98540878px;font-family:'Bitstream Vera Sans'"
       id="g27"
       transform="matrix(-0.171875,0,0,0.171875,2.1926331,-45.299136)"
       font-size="19.985409">
      <text
         style="stroke:url(#c);stroke-width:3.3309021;stroke-linecap:round;stroke-linejoin:round"
         id="text21"
         y="282.5004"
         x="2.548692"
         transform="scale(1.0236447,0.97690145)">
        <tspan
           id="tspan19"
           y="282.5004"
           x="2.548692"
           style="font-weight:bold;font-size:9.91194057px;font-family:'Liberation Sans';stroke:url(#c);stroke-width:3.3309021;stroke-linecap:round;stroke-linejoin:round">1</tspan>
      </text>
      <text
         style="fill:#bfd9ff;stroke-width:1.66545105"
         id="text25"
         y="275.97507"
         x="2.8022821">
        <tspan
           style="font-weight:bold;font-size:9.49309254px;font-family:'Liberation Sans';fill:#bfd9ff;stroke-width:1.66545105"
           id="tspan23"
           y="275.97507"
           x="2.8022821"
           font-weight="bold"
           font-size="9.493093">1</tspan>
      </text>
    </g>
    <g
       id="g41"
       style="fill:#555555">
      <path
         id="path29"
         d="M 2.3827483,0.79378203 H 5.8208331 V 1.0583324 H 2.3827482 Z"
         inkscape:connector-curvature="0" />
      <path
         id="path31"
         d="M 2.3767904,1.5875197 H 5.8208332 V 1.8520836 H 2.3767904 Z"
         inkscape:connector-curvature="0" />
      <path
         id="path33"
         d="M 2.3767902,2.3812608 H 5.0270831 V 2.645833 H 2.3767902 Z"
         inkscape:connector-curvature="0" />
      <path
         id="path35"
         d="M 2.3827477,3.7041552 H 5.820833 V 3.96875 H 2.3827477 Z"
         inkscape:connector-curvature="0" />
      <path
         id="path37"
         d="M 2.3767899,4.4978911 H 5.820833 V 4.7624995 H 2.3767899 Z"
         inkscape:connector-curvature="0" />
      <path
         id="path39"
         d="M 2.3767899,5.2916339 H 5.0270831 V 5.5562506 H 2.3767899 Z"
         inkscape:connector-curvature="0" />
    </g>
  </g>
</svg>
